X: 107
T: Fill the Cup   #2
R: march
%S: s:2 b:12(6+6)
B: O'Neill's 1850 #107
Z: 1997henrik.norbeck@mailbox.swipnet.se
Q: "Playfully"
M: 2/4
L: 1/8
K: G
   D |: .D.E.G.A | B2 AG |1 cAAB | cAAB :|2 BGGA | BG G |]
|| d |: .e.d.e.g | "^>"d2 cB |1 .c.A.A.B | .c.A.A.d :|2 BGGA | BG G |]
